X:17
T:The Smith's a Gallant Fireman
Z:Jack Campin, 2006, http://www.campin.me.uk/
M:C
L:1/8
Q:1/4=120
K:D
D2 D>F A<AA>F|A>Bd>A F2E>D|E2 E>G B<BB>A|d>fe>d B2B<d|
D2 D>F A<AA>F|A>Bd>A F2E>D|G>BG<B F>AF<A|E>FG>A B2A2:|
d>ef>e d<dd>A|B>Ad>A F2E>D|e2 e>f e2 e>f|g>fe>d B2A2 |
d>ef>e d2 d>A|B>Ad>A F2E>D|G>BG<B F>AF<A|E>FG>A B2A2:|

